icons/glyphs/glyph-clipgrab.svg

<?xml version="1.0" encoding="UTF-8" standalone="no"?><svg height="22" viewBox="0 0 22 22" width="22" xmlns="http://www.w3.org/2000/svg"><sodipodi:namedview/><metadata><rdf:RDF><cc:Work><dc:format>image/svg+xml</dc:format><dc:type/><dc:title/></cc:Work></rdf:RDF></metadata><g transform="matrix(1.2595327 0 0 1.2596735 -3.646442 -2.296868)"><path d="m8.4126531 2.4366643a8.7333412 8.7333412 0 0 0 -5.5175781 8.1191407 8.7333412 8.7333412 0 0 0 8.732422 8.732422 8.7333412 8.7333412 0 0 0 8.351562-6.179688 8.2821493 8.4018812 0 0 1 -3.949218 1.025391 8.2821493 8.4018812 0 0 1 -8.2812504-8.4023438 8.2821493 8.4018812 0 0 1  .6640625-3.2949219z" fill="#fff" stroke-width=".517"/><path d="m11.627496 1.8233833a8.7333412 8.7333412 0 0 0 -3.214844.6171875 8.2821493 8.4018812 0 0 0 -.664062 3.2929687 8.2821493 8.4018812 0 0 0 8.28125 8.4003905 8.2821493 8.4018812 0 0 0 3.949219-1.025391 8.7333412 8.7333412 0 0 0  .382812-2.552734 8.7333412 8.7333412 0 0 0 -8.734375-8.7324217z" fill="#d0d0d0" opacity=".6" stroke-width=".517"/></g></svg>

<?xml version="1.0" encoding="UTF-8" standalone="no"?>
<!-- Created with Inkscape (http://www.inkscape.org/) -->

<svg
   xmlns:dc="http://purl.org/dc/elements/1.1/"
   xmlns:cc="http://creativecommons.org/ns#"
   xmlns:rdf="http://www.w3.org/1999/02/22-rdf-syntax-ns#"
   xmlns:svg="http://www.w3.org/2000/svg"
   xmlns="http://www.w3.org/2000/svg"
   xmlns:sodipodi="http://sodipodi.sourceforge.net/DTD/sodipodi-0.dtd"
   xmlns:inkscape="http://www.inkscape.org/namespaces/inkscape"
   width="22"
   height="22"
   viewBox="0 0 22 22"
   version="1.1"
   id="svg8"
   inkscape:version="0.92+devel 15649 custom"
   sodipodi:docname="glyph-clipgrab.svg">
  <defs
     id="defs2" />
  <sodipodi:namedview
     id="base"
     pagecolor="#002266"
     bordercolor="#ffffff"
     borderopacity="0.46666667"
     inkscape:pageopacity="0"
     inkscape:pageshadow="2"
     inkscape:zoom="13.081476"
     inkscape:cx="16.621911"
     inkscape:cy="12.794693"
     inkscape:document-units="px"
     inkscape:current-layer="svg8"
     inkscape:document-rotation="0"
     showgrid="false"
     inkscape:showpageshadow="false"
     borderlayer="true"
     units="px"
     fit-margin-top="0"
     fit-margin-left="0"
     fit-margin-right="0"
     fit-margin-bottom="0"
     inkscape:window-width="1920"
     inkscape:window-height="1051"
     inkscape:window-x="0"
     inkscape:window-y="0"
     inkscape:window-maximized="1" />
  <metadata
     id="metadata5">
    <rdf:RDF>
      <cc:Work
         rdf:about="">
        <dc:format>image/svg+xml</dc:format>
        <dc:type
           rdf:resource="http://purl.org/dc/dcmitype/StillImage" />
        <dc:title></dc:title>
      </cc:Work>
    </rdf:RDF>
  </metadata>
  <g
     id="g8207"
     transform="matrix(1.2595327,0,0,1.2596735,-3.646442,-2.296868)"
     inkscape:label="glyph">
    <path
       inkscape:connector-curvature="0"
       id="path8199"
       d="M 8.4126531,2.4366643 A 8.7333412,8.7333412 0 0 0 2.895075,10.555805 8.7333412,8.7333412 0 0 0 11.627497,19.288227 8.7333412,8.7333412 0 0 0 19.979059,13.108539 8.2821493,8.4018812 0 0 1 16.029841,14.13393 8.2821493,8.4018812 0 0 1 7.7485906,5.7315862 8.2821493,8.4018812 0 0 1 8.4126531,2.4366643 Z"
       style="fill:#ffffff;stroke-width:0.51700002" />
    <path
       inkscape:connector-curvature="0"
       id="circle8195"
       d="M 11.627496,1.8233833 A 8.7333412,8.7333412 0 0 0 8.412652,2.4405708 8.2821493,8.4018812 0 0 0 7.74859,5.7335395 8.2821493,8.4018812 0 0 0 16.02984,14.13393 8.2821493,8.4018812 0 0 0 19.979059,13.108539 8.7333412,8.7333412 0 0 0 20.361871,10.555805 8.7333412,8.7333412 0 0 0 11.627496,1.8233833 Z"
       style="opacity:0.6;fill:#d0d0d0;stroke-width:0.51700002" />
  </g>
</svg>
